packages/foundations/icons/Education/Languages.svg

<svg width="24" height="24" viewBox="0 0 24 24" fill="none" xmlns="http://www.w3.org/2000/svg">
<g clip-path="url(#clip0_1_10105)">
<path fill-rule="evenodd" clip-rule="evenodd" d="M10 0C12.7614 0 15 2.23858 15 5V7H19C21.6888 7 23.8818 9.12231 23.9954 11.7831L24 12V16C24 18.6888 21.8777 20.8818 19.2169 20.9954L19 21V22.9194C19 23.1464 18.9227 23.3668 18.7809 23.5441C18.4624 23.9422 17.9017 24.0324 17.4781 23.7725L17.3753 23.7002L14 21L13.7831 20.9954C11.1962 20.885 9.11832 18.809 9.00488 16.2229L9 16V14.8L6.62469 16.7002C6.19343 17.0453 5.56414 16.9753 5.21913 16.5441C5.07728 16.3668 5 16.1464 5 15.9194V14C2.23858 14 0 11.7614 0 9V5C0 2.23858 2.23858 0 5 0H10ZM19 9H15C15 11.4185 13.2828 13.436 11.0012 13.8997L11 16C11 17.5977 12.2489 18.9037 13.8237 18.9949L14 19H14.7929C14.9255 19 15.0527 19.0527 15.1464 19.1464L17 21V19.5C17 19.2239 17.2239 19 17.5 19H19C20.6569 19 22 17.6569 22 16V12C22 10.3431 20.6569 9 19 9ZM16.813 10.3975C16.9485 10.4652 17.0584 10.5751 17.1261 10.7106L20.2367 16.9317C20.3848 17.2281 20.2647 17.5885 19.9683 17.7367C19.6719 17.8848 19.3115 17.7647 19.1633 17.4683L18.4349 16.0125H14.5639L13.8367 17.4683C13.6885 17.7647 13.3281 17.8848 13.0317 17.7367C12.7353 17.5885 12.6152 17.2281 12.7633 16.9317L15.8739 10.7106C16.0468 10.3648 16.4673 10.2246 16.813 10.3975ZM16.5 12.1416L15.1639 14.8125H17.8349L16.5 12.1416ZM10 2H5C3.40232 2 2.09634 3.24892 2.00509 4.82373L2 5V9C2 10.5977 3.24892 11.9037 4.82373 11.9949L5 12H6.5C6.74546 12 6.94961 12.1769 6.99194 12.4101L7 12.5V14L8.85355 12.1464C8.92857 12.0714 9.02496 12.0227 9.12842 12.0062L9.20711 12H10L10.1763 11.9949C11.6928 11.907 12.907 10.6928 12.9949 9.17627L13 9V5C13 3.34315 11.6569 2 10 2ZM7.55 2.51921C7.9297 2.51921 8.24349 2.80136 8.29315 3.16744L8.3 3.26921L8.299 3.73921L11.35 3.74C11.7642 3.74 12.1 4.07579 12.1 4.49C12.1 4.8697 11.8178 5.18349 11.4518 5.23315L11.35 5.24L10.4751 5.23993C10.2095 6.45837 9.59462 7.56946 8.64078 8.57292C9.22997 9.00949 9.91913 9.42498 10.7075 9.81918C11.078 10.0044 11.2282 10.4549 11.0429 10.8254C10.8577 11.1959 10.4072 11.3461 10.0367 11.1608C9.07107 10.678 8.22616 10.1556 7.50432 9.59357C6.78485 10.1556 5.93994 10.678 4.9743 11.1608C4.60382 11.3461 4.15331 11.1959 3.96807 10.8254C3.78283 10.4549 3.93299 10.0044 4.30348 9.81918C5.09188 9.42498 5.78104 9.00949 6.37281 8.57266C5.4164 7.56946 4.80148 6.45837 4.53594 5.23993L3.75 5.24C3.33579 5.24 3 4.90421 3 4.49C3 4.1103 3.28215 3.79651 3.64823 3.74685L3.75 3.74L6.799 3.73921L6.8 3.26921C6.8 2.855 7.13579 2.51921 7.55 2.51921ZM8.92732 5.23986H6.0837C6.32763 6.07553 6.79898 6.85879 7.50486 7.58983C8.21204 6.85879 8.68338 6.07553 8.92732 5.23986Z" fill="#3D474D"/>
</g>
<defs>
<clipPath id="clip0_1_10105">
<rect width="24" height="24" fill="white"/>
</clipPath>
</defs>
</svg>

<svg xmlns="http://www.w3.org/2000/svg" fill="none" viewBox="0 0 24 24" width="100%" height="100%">
  <g clip-path="url(#a)">
    <path fill="#3D474D" fill-rule="evenodd" d="M10 0a5 5 0 0 1 5 5v2h4a5 5 0 0 1 4.995 4.783L24 12v4a5 5 0 0 1-4.783 4.995L19 21v1.92a1 1 0 0 1-1.522.852l-.103-.072L14 21l-.217-.005a5 5 0 0 1-4.778-4.772L9 16v-1.2l-2.375 1.9A1 1 0 0 1 5 15.92V14a5 5 0 0 1-5-5V5a5 5 0 0 1 5-5h5Zm9 9h-4a5.002 5.002 0 0 1-3.999 4.9L11 16a3 3 0 0 0 2.824 2.995L14 19h.793a.5.5 0 0 1 .353.146L17 21v-1.5a.5.5 0 0 1 .5-.5H19a3 3 0 0 0 3-3v-4a3 3 0 0 0-3-3Zm-2.187 1.398a.7.7 0 0 1 .313.313l3.11 6.22a.6.6 0 0 1-1.073.537l-.728-1.456h-3.871l-.727 1.456a.6.6 0 0 1-1.074-.536l3.11-6.221a.7.7 0 0 1 .94-.313Zm-.313 1.744-1.336 2.67h2.67l-1.334-2.67ZM10 2H5a3 3 0 0 0-2.995 2.824L2 5v4a3 3 0 0 0 2.824 2.995L5 12h1.5a.5.5 0 0 1 .492.41L7 12.5V14l1.854-1.854a.5.5 0 0 1 .274-.14l.08-.006H10l.176-.005a3 3 0 0 0 2.819-2.819L13 9V5a3 3 0 0 0-3-3Zm-2.45.52a.75.75 0 0 1 .743.647l.007.102-.001.47 3.051.001a.75.75 0 0 1 .102 1.493l-.102.007h-.875c-.265 1.218-.88 2.33-1.834 3.333.589.436 1.278.852 2.066 1.246a.75.75 0 1 1-.67 1.342 15.12 15.12 0 0 1-2.533-1.567 15.02 15.02 0 0 1-2.53 1.567.75.75 0 1 1-.67-1.342 14.18 14.18 0 0 0 2.069-1.246C5.416 7.569 4.8 6.458 4.536 5.24H3.75a.75.75 0 0 1-.102-1.493l.102-.007h3.049l.001-.47a.75.75 0 0 1 .75-.75Zm1.377 2.72H6.084c.244.836.715 1.619 1.42 2.35.708-.731 1.18-1.514 1.423-2.35Z" clip-rule="evenodd"/>
  </g>
  <defs>
    <clipPath id="a">
      <path fill="#fff" d="M0 0h24v24H0z"/>
    </clipPath>
  </defs>
</svg>
